X:469
T:
R:vals
S:Efter Nils Jonsson Sallmands i Burs.
O:Gotland, Burs
M:3/4
L:1/8
K:G
(GB)|d2 B2 d2|B4 GB|d2 B2 d2|g4 d2|g2 f2 e2|d2 e2 d2|(ce) d2 F2|G4::d2|g4 fe|d2 e2 f2|
g4 fe|(dc)(BA) G2|g4 (fe)|d2 e2 d2|(ce) d2 F2|G4:|

